src/assets/images/icons/filter-off-line.svg

<svg width="24" height="24" viewBox="0 0 24 24" fill="none" xmlns="http://www.w3.org/2000/svg">
<g clip-path="url(#clip0_58_16460)">
<path d="M6.929 0.514893L21.07 14.6569L19.656 16.0709L15.833 12.2489L15 13.4999V21.9999H9V13.4999L4 5.99989H3V3.99989H7.585L5.515 1.92889L6.929 0.514893ZM9.585 5.99989H6.404L11 12.8939V19.9999H13V12.8939L14.392 10.8069L9.585 5.99989ZM21 3.99989V5.99989H20L18.085 8.87189L16.643 7.42889L17.596 5.99989H15.213L13.213 3.99989H21Z" fill="#181D27"/>
</g>
<defs>
<clipPath id="clip0_58_16460">
<rect width="24" height="24" fill="white"/>
</clipPath>
</defs>
</svg>

<svg xmlns="http://www.w3.org/2000/svg" width="24" height="24" fill="none" viewBox="0 0 24 24"><g clip-path="url(#a)"><path fill="#181d27" d="M6.929.515 21.07 14.657l-1.414 1.414-3.823-3.822-.833 1.25V22H9v-8.5L4 6H3V4h4.585l-2.07-2.07zM9.585 6H6.404L11 12.894V20h2v-7.106l1.392-2.087zM21 4v2h-1l-1.915 2.872-1.442-1.443.953-1.43h-2.383l-2-2z"/></g><defs><clipPath id="a"><path fill="#fff" d="M0 0h24v24H0z"/></clipPath></defs></svg>
